svg/u1f356.svg

<svg viewBox="0 0 128 128" xmlns="http://www.w3.org/2000/svg">
  <path d="M33.16,39.69c0,0-5.83-8.61-9.8-10.08c-3.98-1.47-8.11-0.51-9.94-2.9c-1.85-2.42-2.81-6.55-2.22-9.2 c0.59-2.65,2.1-4.66,3.42-4.95s4.82,1.56,4.82,1.56s-0.15-4.49,0.29-6.11c0.44-1.62,2.29-3.31,3.24-3.9 c3.08-1.92,4.71-0.44,4.71-0.44s-1.18,10.31,2.65,14.87s19,20.32,16.05,20.47C43.44,39.15,33.16,39.69,33.16,39.69z" fill="#DDBCA8"/>
  <path d="M33.44,32.93c0,0-6.51-6.11-8.56-7.18c-2.05-1.07-6.31-0.52-7.8-1.3c-2.01-1.05-4.19-3.3-4.37-6.95 s0.84-5.44,4.45-5.61c2.94-0.14,4.72,0.98,5.52,0.18c0.8-0.8,0.09-6.15,0.53-7.04c0.45-0.89,1.69-2.58,4.99-2.05s4.72,3.58,4.9,4.37 c0.74,3.21,0.2,9.24,1.01,10.67c1.28,2.25,9.94,11.87,9.94,11.87S33.52,32.75,33.44,32.93z" fill="#FFEBCA"/>
  <path d="M33.18,30.72C19.12,40.64,14.37,54.39,14.87,64.6c0.43,8.78,3.55,13.51,8.66,17.74 s8.3,5.41,10.42,8.27s5.09,14.69,11.69,20.91s27.68,18.76,52.24-3.26c25.28-22.67,17.5-45.41,8.16-53.88 c-9.02-8.18-16.86-8.74-20.88-13.63c-4.61-5.6-2.86-7.87-10.34-13.99C66,19.54,50.49,18.52,33.18,30.72z" fill="#CF701E"/>
  <path d="M61.2,63.54c-14.82,11.9-25.02,36.47-7.22,47.95c13.33,8.59,32.35,2.11,43.18-7.92 c8.47-7.84,19.16-28.63,9-40.97C97.12,51.62,77.02,50.84,61.2,63.54z" fill="#FBD5B2"/>
  <path d="M58.77,32.62c-0.95-0.95-2.46-0.87-3.69,0.58c-1.23,1.45-1.4,3.29-0.36,4.12 c1.52,1.23,3.11-0.31,3.91-1.37C59.49,34.79,59.85,33.7,58.77,32.62z" fill="#AB5931"/>
  <path d="M31.43,44.41c-1.88-0.29-2.46,1.52-2.53,3.04c-0.07,1.52-0.29,3.26,1.74,3.4 c2.03,0.14,2.46-1.95,2.46-3.33C33.09,46.14,33.29,44.69,31.43,44.41z" fill="#AB5931"/>
  <path d="M32,62.06c-1.81-0.08-2.39,1.45-2.31,3.69s0.8,3.62,2.03,3.54c1.23-0.07,1.9-1.45,2.03-3.33 C33.89,63.79,33.74,62.13,32,62.06z" fill="#AB5931"/>
  <path d="M38.44,69.29c-1.09-0.78-2.68-0.22-3.26,2.03c-0.62,2.4,0.32,3.16,1.09,3.47 c1.23,0.51,2.17-0.8,2.6-2.24C39.31,71.1,39.46,70.01,38.44,69.29z" fill="#AB5931"/>
  <path d="M81,60.52c-1.19-0.81-9.92,1.03-18.3,8.99S51.54,84.09,52.37,86.36s6.51,2.17,8.79,2.17 s8.15-0.05,10.03-0.1c3.72-0.1,3.72,3.51-0.1,4.03c-3.09,0.42-11.58,0.72-14.99,1.96c-3,1.09-5.68,1.96-5.89,4.34 c-0.21,2.38,3.51,8.27,9.72,10.44s13.54,1.55,14.88,0.52c1.34-1.03,2.27-8.37,2.48-11.78c0.21-3.41,0.1-8.27,2.69-8.27 s1.86,6.1,1.96,8.58c0.1,2.48-0.1,6.82,1.24,7.86c1.34,1.03,6.69-1.63,11.37-6.31c4.24-4.24,7.65-8.79,6.41-10.34 c-1.24-1.55-11.47-1.76-13.95-1.65c-2.48,0.1-2.89-4.13,0.62-4.24c3.51-0.1,11.99,0.62,14.68-0.83c2.69-1.45,5.99-8.06,1.45-15.5 s-9.82-7.65-12.09-7.44c-2.27,0.21-3.31,6.2-4.13,9.1c-0.83,2.89-1.65,8.27-1.96,9.51c-0.31,1.24-3,2.27-3.2-0.41 c-0.21-2.69,0.21-7.44,0.31-10.13S82.96,61.87,81,60.52z" fill="#FF605E"/>
  <path d="M86.89,91.53c0,0-8.06-6.93-8.68-6.1c-0.62,0.83-1.86,2.27-2.07,4.55c-0.21,2.27,0.55,2.98,0.55,2.98 s7.51,9.94,9.16,11.8c1.65,1.86,3.99,5.3,4.2,6.95c0.21,1.65-0.6,7.16,0.14,8.87c0.93,2.17,2.77,3.61,5.56,4.14 c1.41,0.27,6.49-0.07,7.84-1.42s1.93-3.84,1.93-5.08c0-1.24-0.58-2.14,0.76-2.76c1.34-0.62,5.32-0.14,7.18-1.17 c1.86-1.03,3.31-3.25,3.21-5.84c-0.1-2.58-3.74-4.33-4.05-4.33S86.89,91.53,86.89,91.53z" fill="#DFBBAA"/>
  <path d="M87.92,81.85c-0.45-0.31-0.71-0.42-1.05-0.45c-1.48-0.12-3.4,0.01-5.58,1.38 c-2.29,1.43-3.87,3.69-3.87,3.69s12.67,15.6,13.81,17.26c1.14,1.65,3.2,4.34,3.2,5.68s-0.78,6.84-0.31,8.06 c0.72,1.86,3.41,4.44,5.89,4.44c3.52,0,4.89-1.92,5.41-3.27s0.49-5.42,1.31-7.48c1.03-2.58,9.39-0.36,9.91-2.01 c0.52-1.65,1.27-6.12-2.36-8.22c-2.69-1.55-9.41-0.72-9.41-0.72S89.24,82.74,87.92,81.85z" fill="#FFEBCA"/>
</svg>

<svg viewBox="0 0 128 128" xmlns="http://www.w3.org/2000/svg">
  <defs/>
  <path d="M33.16,39.69 C33.16,39.69 27.33,31.08 23.36,29.61 C19.38,28.14 15.25,29.1 13.42,26.71 C11.57,24.29 10.61,20.16 11.2,17.51 C11.79,14.86 13.3,12.85 14.62,12.56 C15.94,12.27 19.44,14.12 19.44,14.12 C19.44,14.12 19.29,9.63 19.73,8.01 C20.17,6.39 22.02,4.7 22.97,4.11 C26.05,2.19 27.68,3.67 27.68,3.67 C27.68,3.67 26.5,13.98 30.33,18.54 C34.16,23.1 49.33,38.86 46.38,39.01 C43.44,39.15 33.16,39.69 33.16,39.69 Z" fill="#DDBCA8"/>
  <path d="M33.44,32.93 C33.44,32.93 26.93,26.82 24.88,25.75 C22.83,24.68 18.57,25.23 17.08,24.45 C15.07,23.4 12.89,21.15 12.71,17.5 C12.53,13.85 13.55,12.06 17.16,11.89 C20.1,11.75 21.88,12.87 22.68,12.07 C23.48,11.27 22.77,5.92 23.21,5.03 C23.66,4.14 24.9,2.45 28.2,2.98 C31.5,3.51 32.92,6.56 33.1,7.35 C33.84,10.56 33.3,16.59 34.11,18.02 C35.39,20.27 44.05,29.89 44.05,29.89 C44.05,29.89 33.52,32.75 33.44,32.93 Z" fill="#FFEBCA"/>
  <path d="M33.18,30.72 C19.12,40.64 14.37,54.39 14.87,64.6 C15.3,73.38 18.42,78.11 23.53,82.34 C28.64,86.57 31.83,87.75 33.95,90.61 C36.07,93.47 39.04,105.3 45.64,111.52 C52.24,117.74 73.32,130.28 97.88,108.26 C123.16,85.59 115.38,62.85 106.04,54.38 C97.02,46.2 89.18,45.64 85.16,40.75 C80.55,35.15 82.3,32.88 74.82,26.76 C66,19.54 50.49,18.52 33.18,30.72 Z" fill="#CF701E"/>
  <path d="M61.2,63.54 C46.38,75.44 36.18,100.01 53.98,111.49 C67.31,120.08 86.33,113.6 97.16,103.57 C105.63,95.73 116.32,74.94 106.16,62.6 C97.12,51.62 77.02,50.84 61.2,63.54 Z" fill="#FBD5B2"/>
  <path d="M58.77,32.62 C57.82,31.67 56.31,31.75 55.08,33.2 C53.85,34.65 53.68,36.49 54.72,37.32 C56.24,38.55 57.83,37.01 58.63,35.95 C59.49,34.79 59.85,33.7 58.77,32.62 Z" fill="#AB5931"/>
  <path d="M31.43,44.41 C29.55,44.12 28.97,45.93 28.9,47.45 C28.83,48.97 28.61,50.71 30.64,50.85 C32.67,50.99 33.1,48.9 33.1,47.52 C33.09,46.14 33.29,44.69 31.43,44.41 Z" fill="#AB5931"/>
  <path d="M32,62.06 C30.19,61.98 29.61,63.51 29.69,65.75 C29.77,67.99 30.49,69.37 31.72,69.29 C32.95,69.22 33.62,67.84 33.75,65.96 C33.89,63.79 33.74,62.13 32,62.06 Z" fill="#AB5931"/>
  <path d="M38.44,69.29 C37.35,68.51 35.76,69.07 35.18,71.32 C34.56,73.72 35.5,74.48 36.27,74.79 C37.5,75.3 38.44,73.99 38.87,72.55 C39.31,71.1 39.46,70.01 38.44,69.29 Z" fill="#AB5931"/>
  <path d="M81,60.52 C79.81,59.71 71.08,61.55 62.7,69.51 C54.32,77.47 51.54,84.09 52.37,86.36 C53.2,88.63 58.88,88.53 61.16,88.53 C63.44,88.53 69.31,88.48 71.19,88.43 C74.91,88.33 74.91,91.94 71.09,92.46 C68,92.88 59.51,93.18 56.1,94.42 C53.1,95.51 50.42,96.38 50.21,98.76 C50,101.14 53.72,107.03 59.93,109.2 C66.14,111.37 73.47,110.75 74.81,109.72 C76.15,108.69 77.08,101.35 77.29,97.94 C77.5,94.53 77.39,89.67 79.98,89.67 C82.57,89.67 81.84,95.77 81.94,98.25 C82.04,100.73 81.84,105.07 83.18,106.11 C84.52,107.14 89.87,104.48 94.55,99.8 C98.79,95.56 102.2,91.01 100.96,89.46 C99.72,87.91 89.49,87.7 87.01,87.81 C84.53,87.91 84.12,83.68 87.63,83.57 C91.14,83.47 99.62,84.19 102.31,82.74 C105,81.29 108.3,74.68 103.76,67.24 C99.22,59.8 93.94,59.59 91.67,59.8 C89.4,60.01 88.36,66 87.54,68.9 C86.71,71.79 85.89,77.17 85.58,78.41 C85.27,79.65 82.58,80.68 82.38,78 C82.17,75.31 82.59,70.56 82.69,67.87 C82.79,65.18 82.96,61.87 81,60.52 Z" fill="#FF605E"/>
  <path d="M86.89,91.53 C86.89,91.53 78.83,84.6 78.21,85.43 C77.59,86.26 76.35,87.7 76.14,89.98 C75.93,92.25 76.69,92.96 76.69,92.96 C76.69,92.96 84.2,102.9 85.85,104.76 C87.5,106.62 89.84,110.06 90.05,111.71 C90.26,113.36 89.45,118.87 90.19,120.58 C91.12,122.75 92.96,124.19 95.75,124.72 C97.16,124.99 102.24,124.65 103.59,123.3 C104.94,121.95 105.52,119.46 105.52,118.22 C105.52,116.98 104.94,116.08 106.28,115.46 C107.62,114.84 111.6,115.32 113.46,114.29 C115.32,113.26 116.77,111.04 116.67,108.45 C116.57,105.87 112.93,104.12 112.62,104.12 C112.31,104.12 86.89,91.53 86.89,91.53 Z" fill="#DFBBAA"/>
  <path d="M87.92,81.85 C87.47,81.54 87.21,81.43 86.87,81.4 C85.39,81.28 83.47,81.41 81.29,82.78 C79,84.21 77.42,86.47 77.42,86.47 C77.42,86.47 90.09,102.07 91.23,103.73 C92.37,105.38 94.43,108.07 94.43,109.41 C94.43,110.75 93.65,116.25 94.12,117.47 C94.84,119.33 97.53,121.91 100.01,121.91 C103.53,121.91 104.9,119.99 105.42,118.64 C105.94,117.29 105.91,113.22 106.73,111.16 C107.76,108.58 116.12,110.8 116.64,109.15 C117.16,107.5 117.91,103.03 114.28,100.93 C111.59,99.38 104.87,100.21 104.87,100.21 C104.87,100.21 89.24,82.74 87.92,81.85 Z" fill="#FFEBCA"/>
</svg>
